svgs/_150x_duplicate_file_remover_pro.svg

<svg width="192" height="192" viewBox="0 0 192 192" fill="none" xmlns="http://www.w3.org/2000/svg">
<path d="M60.323 111.414L116.068 111.208M119.241 25.0052C115.774 63.9506 137.937 75.2203 166.995 72.9529M77.1212 25.0052H114.879C123.19 25.0052 136.984 24.7399 144.572 28.0009C153.296 31.7501 160.275 38.756 164.01 47.5128C167.259 55.1292 166.995 68.9751 166.995 77.3174V114.68C166.995 123.022 167.259 136.868 164.01 144.485C160.275 153.241 153.296 160.247 144.572 163.996C136.984 167.258 123.19 166.992 114.879 166.992H77.1212C68.8103 166.992 55.0162 167.258 47.4283 163.996C38.7044 160.247 31.7248 153.241 27.9897 144.485C24.7408 136.868 25.0052 123.022 25.0052 114.68V77.3174C25.0052 68.9751 24.7408 55.1292 27.9897 47.5128C31.7248 38.756 38.7044 31.7501 47.4283 28.0009C55.0162 24.7399 68.8103 25.0052 77.1212 25.0052Z" stroke="black" stroke-width="12" stroke-linecap="round" stroke-linejoin="round"/>
</svg>

<svg xmlns="http://www.w3.org/2000/svg" width="192" height="192" fill="none"><path stroke="#000" stroke-linecap="round" stroke-linejoin="round" stroke-width="12" d="m60.323 111.414 55.745-.206m3.173-86.203c-3.467 38.946 18.696 50.215 47.754 47.948M77.121 25.005h37.758c8.311 0 22.105-.265 29.693 2.996a37.1 37.1 0 0 1 19.438 19.512c3.249 7.616 2.985 21.462 2.985 29.804v37.363c0 8.342.264 22.188-2.985 29.805a37.1 37.1 0 0 1-19.438 19.511c-7.588 3.262-21.382 2.996-29.693 2.996H77.121c-8.31 0-22.105.266-29.693-2.996a37.1 37.1 0 0 1-19.438-19.511c-3.25-7.617-2.985-21.463-2.985-29.805V77.317c0-8.342-.264-22.188 2.985-29.804A37.1 37.1 0 0 1 47.428 28c7.588-3.261 21.382-2.996 29.693-2.996"/></svg>
